X: 19
T: Good Natured Man, The
C: James Hill
Z: Noel Jackson
S: https://thesession.org/tunes/312#setting53097
R: hornpipe
M: 4/4
L: 1/8
K: Gmaj
||:(3def|"G"g2 b>g d2 g>d|"G"B>cd>B G2 A>B|"Am"c2 e>c A2 c>A|"D7"F>GA>B c>de>f|!
"G"g2 b>g d2 g>d|"G"B>cd>B G2 A>B|"Am"c>ed>c "Bm"B>AG>F|"D"A2 G2 "G"G2:||!
||:(3Bc^c|"G"d>Bd>B g2 g>d|"C"e>ce>c "Am"a2 a>g|"D"f>ef>d "G"g>fg>b|"D"a>gf>e d2(3def|!
"G"g2 b>g d2 g>d|"G"B>cd>B G2 A>B|"Am"c>ed>c "Bm"B>AG>F|"D"A2 G2"G" G2:||!

